assets/images/svg+xml;base64,PHN2ZyB4bWxucz0iaHR0cDovL3d3dy53My5vcmcvMjAwMC9zdmciIGhlaWdodD0iNDAwcHQiIHZpZXdCb3g9IjAgLTU5IDQwMCA0MDAiIHdpZHRoPSI0MDBwdCIgY2xhc3M9InN2ZyByZXBsYWNlZC1zdmciPjxwYXRoIGQ9Im0zMjkuNSAzMGgtODkuNXYtMjAuMTk.svg

<svg xmlns="http://www.w3.org/2000/svg" height="400pt" viewBox="0 -59 400 400" width="400pt" class="svg replaced-svg"><path d="m329.5 30h-89.5v-20.199219c.101562-5.300781-4.199219-9.699219-9.5-9.800781-.101562 0-.199219 0-.300781 0h-61.199219c-5.398438-.0976562-9.898438 4.203125-10 9.703125v.097656 20.199219h-89.300781c-5.5 0-10 4.5-10 10s4.5 10 10 10h60.601562c-24.199219 21-39.300781 50.800781-39.300781 83.703125v67.296875h-18.199219c-5.402343 0-9.800781 4.402344-9.800781 9.800781v.199219 61.203125c-.101562 5.296875 4.199219 9.699219 9.5 9.796875h.300781 61.199219c5.398438.101562 9.898438-4.296875 10-9.699219v-.097656-61.203125c0-5.5-4.5-10-10-10h-23v-67.296875c.101562-33.101563 18.601562-63.300781 48-78.5v15.796875c0 5.5 4.398438 10 9.898438 10h61.300781c5.402343 0 9.800781-4.398438 9.800781-9.796875 0-.101563 0-.101563 0-.203125v-15.796875c29.398438 15.097656 48 45.398437 48 78.5v67.296875h-22.800781c-5.597657 0-10.097657 4.402344-10.199219 10v61.203125c.101562 5.5 4.699219 9.898437 10.199219 9.796875h61.199219c5.203124.101562 9.5-4.097656 9.601562-9.398438 0-.101562 0-.300781 0-.398437v-61.203125c.199219-5.296875-4-9.796875-9.300781-10-.097657 0-.199219 0-.300781 0h-18.398438v-67.296875c0-33-14.800781-62.703125-39-83.703125h60.5c5.5 0 10-4.5 10-10s-4.5-10-10-10zm-205.5 232h-41v-41h41zm192 0h-41v-41h41zm-137-201v-41h41v16.601562 6.898438 17.5zm0 0"/><g><path d="m39.101562 80.300781c-21.5 0-39.101562-17.898437-39.101562-39.898437s17.5-39.902344 39.101562-39.902344c21.597657 0 39.097657 17.902344 39.097657 39.902344s-17.597657 39.898437-39.097657 39.898437zm0-59.800781c-10.5 0-19.101562 8.902344-19.101562 19.902344s8.601562 19.898437 19.101562 19.898437 19.097657-8.898437 19.097657-19.898437-8.597657-19.902344-19.097657-19.902344zm0 0"/><path d="m360.101562 79.5c-22 0-39.902343-17.5-39.902343-39.097656 0-21.601563 17.902343-39.101563 39.902343-39.101563s39.898438 17.5 39.898438 39.101563c0 21.597656-17.898438 39.097656-39.898438 39.097656zm0-58.199219c-11 0-19.902343 8.601563-19.902343 19.101563s8.902343 19.097656 19.902343 19.097656 19.898438-8.597656 19.898438-19.097656-8.898438-19.101563-19.898438-19.101563zm0 0"/></g></svg>

<svg xmlns="http://www.w3.org/2000/svg" height="400pt" viewBox="0 -59 400 400" width="400pt" class="svg replaced-svg"><path d="M329.5 30H240V9.8c.102-5.3-4.2-9.698-9.5-9.8H169c-5.398-.098-9.898 4.203-10 9.703V30H69.7c-5.5 0-10 4.5-10 10s4.5 10 10 10h60.6C106.103 71 91 100.8 91 133.703V201H72.8c-5.402 0-9.8 4.402-9.8 9.8V272.204c-.102 5.297 4.2 9.7 9.5 9.797H134c5.398.102 9.898-4.297 10-9.7V211c0-5.5-4.5-10-10-10h-23v-67.297c.102-33.101 18.602-63.3 48-78.5V71c0 5.5 4.398 10 9.898 10H230.2c5.403 0 9.801-4.398 9.801-9.797v-16c29.398 15.098 48 45.399 48 78.5V201h-22.8c-5.598 0-10.098 4.402-10.2 10v61.203c.102 5.5 4.7 9.899 10.2 9.797h61.198c5.204.102 9.5-4.098 9.602-9.398V211c.2-5.297-4-9.797-9.3-10H308v-67.297c0-33-14.8-62.703-39-83.703h60.5c5.5 0 10-4.5 10-10s-4.5-10-10-10zM124 262H83v-41h41zm192 0h-41v-41h41zM179 61V20h41v41zm0 0"/><path d="M39.102 80.3C17.602 80.3 0 62.403 0 40.403S17.5.5 39.102.5c21.597 0 39.097 17.902 39.097 39.902S60.602 80.301 39.102 80.301zm0-59.8C28.602 20.5 20 29.402 20 40.402s8.602 19.899 19.102 19.899 19.097-8.899 19.097-19.899S49.602 20.5 39.102 20.5zM360.102 79.5c-22 0-39.903-17.5-39.903-39.098 0-21.601 17.903-39.101 39.903-39.101S400 18.8 400 40.402C400 62 382.102 79.5 360.102 79.5zm0-58.2c-11 0-19.903 8.602-19.903 19.102S349.102 59.5 360.102 59.5 380 50.902 380 40.402s-8.898-19.101-19.898-19.101zm0 0"/></svg>
